X:22
T:Bourr\'ee des Jeunes
Z:Bert Van Vreckem <http://flanders.blackmill.net/music/>
R:Bourr\'ee
M:3/4
L:1/4
K:C
g|:g/f/ e f|g2 d/e/|f d f|e c g|g/f/ e f|g2 d/e/|f d B|[1c2 g:|[2c2 c|
|:e d c|B2 d/e/|f d f|e c c|e d c|B2 d/e/|f d B|c2 c:|
